X:751
%%etbk:tnset id:481,pos:1,rep:3x,ant:
%%etbk:wsite https://thesession.org/tunes/9743
%%etbk:pldat 2015-06-13T16:42,2015-06-10T17:56,2015-06-09T17:01,2015-06-06T15:54
T: The Sleeping Tortoise
Z: Piano Box Version by Martin Fleischmann
H: Created 2015-06-06 /  Last Modified 2015-06-13
R: jig
M: 6/8
L: 1/8
K:Bdor
|: !1!B,!4!F !2!F3 F | E!2!F!4!c dc!3!A | !3!AB!1!E -E!4!FE | !3!EF!2!C -C!1!D!3!F |
!1!E!2!F F3 F | EFc dcA | !4!BAF EFF | CFF EDC :|
|: !3!G!1!EE !1!D!5!BA | !3!G!1!EE !5!BAG | !2!F!1!D!2!D !1!B,D!3!E | -E!2!FD !4!AGF |
!2!FG!1!E !1!DBA | !3!GEE D2F | E!2!F/!2!G/!4!A !2!G!3!A!5!d |1 !3!c!4!d!1!A !3!GAF :|2 !3!c!4!d!1!A !3!GFE||


